src/asset/24px/invest.svg

<svg width="24" height="24" viewBox="0 0 24 24" fill="none" xmlns="http://www.w3.org/2000/svg">
<path fill-rule="evenodd" clip-rule="evenodd" d="M11 7.99973C11 5.2383 13.2386 2.99973 16 2.99973H18C18.5523 2.99973 19 3.44744 19 3.99973V5.99973C19 8.76115 16.7614 10.9997 14 10.9997H13V17.9997H14V16.9997C14 14.2383 16.2386 11.9997 19 11.9997H21C21.5523 11.9997 22 12.4474 22 12.9997V14.9997C22 17.7611 19.7614 19.9997 17 19.9997H13V20.9997C13 21.552 12.5523 21.9997 12 21.9997C11.4477 21.9997 11 21.552 11 20.9997V15.9997H7C4.23858 15.9997 2 13.7611 2 10.9997V8.99973C2 8.44744 2.44772 7.99973 3 7.99973H5C7.76142 7.99973 10 10.2383 10 12.9997V13.9997H11V7.99973ZM8 13.9997V12.9997C8 11.3429 6.65685 9.99973 5 9.99973H4V10.9997C4 12.6566 5.34315 13.9997 7 13.9997H8ZM16 17.9997H17C18.6569 17.9997 20 16.6566 20 14.9997V13.9997H19C17.3431 13.9997 16 15.3429 16 16.9997V17.9997ZM13 8.99973H14C15.6569 8.99973 17 7.65658 17 5.99973V4.99973H16C14.3431 4.99973 13 6.34287 13 7.99973V8.99973Z" fill="currentColor"/>
</svg>

<svg width="24" height="24" fill="none" xmlns="http://www.w3.org/2000/svg"><path fill-rule="evenodd" clip-rule="evenodd" d="M11 8a5 5 0 015-5h2a1 1 0 011 1v2a5 5 0 01-5 5h-1v7h1v-1a5 5 0 015-5h2a1 1 0 011 1v2a5 5 0 01-5 5h-4v1a1 1 0 11-2 0v-5H7a5 5 0 01-5-5V9a1 1 0 011-1h2a5 5 0 015 5v1h1V8zm-3 6v-1a3 3 0 00-3-3H4v1a3 3 0 003 3h1zm8 4h1a3 3 0 003-3v-1h-1a3 3 0 00-3 3v1zm-3-9h1a3 3 0 003-3V5h-1a3 3 0 00-3 3v1z" fill="currentColor"/></svg>
